svg/material-icons/pest_control_rodent/materialiconsoutlined/20px.svg

<svg xmlns="http://www.w3.org/2000/svg" width="20" height="20" viewBox="0 0 20 20"><path d="m16.32 12.38-1.34-1.21c.13-2.27-2.05-3.63-3.93-3-.35-.1-.71-.17-1.08-.17-2.02 0-3.67 1.52-3.92 3.48A2.242 2.242 0 0 1 4 9.25C4 8.01 5.01 7 6.25 7H8.5c.83 0 1.5-.67 1.5-1.5S9.33 4 8.5 4h-1c-.28 0-.5.22-.5.5s.22.5.5.5h1c.28 0 .5.22.5.5s-.22.5-.5.5H6.25C4.46 6 3 7.46 3 9.25c0 1.72 1.35 3.12 3.04 3.23C6.27 14.46 7.93 16 9.97 16h4.95c1.91 0 2.79-2.35 1.4-3.62zM14.92 15H9.97A2.97 2.97 0 0 1 7 12.03c0-2.47 2.24-2.98 2.76-3.01a2.99 2.99 0 0 0 .12 4.1l.71-.71C9.31 11.14 10.24 9 12 9c.47 0 2.09.2 1.96 2.59l1.69 1.53c.73.67.25 1.88-.73 1.88z"/><circle cx="13.55" cy="13.45" r=".75"/></svg>

<svg xmlns="http://www.w3.org/2000/svg" enable-background="new 0 0 20 20" height="20" viewBox="0 0 20 20" width="20"><g><rect fill="none" height="20" width="20" x="0"/></g><g><g><path d="M16.32,12.38l-1.34-1.21c0.13-2.27-2.05-3.63-3.93-3C10.7,8.07,10.34,8,9.97,8c-2.02,0-3.67,1.52-3.92,3.48 C4.9,11.38,4,10.42,4,9.25C4,8.01,5.01,7,6.25,7H8.5C9.33,7,10,6.33,10,5.5S9.33,4,8.5,4h-1C7.22,4,7,4.22,7,4.5 C7,4.78,7.22,5,7.5,5h1C8.78,5,9,5.22,9,5.5C9,5.78,8.78,6,8.5,6H6.25C4.46,6,3,7.46,3,9.25c0,1.72,1.35,3.12,3.04,3.23 C6.27,14.46,7.93,16,9.97,16h4.95C16.83,16,17.71,13.65,16.32,12.38z M14.92,15H9.97C8.33,15,7,13.67,7,12.03 c0-2.47,2.24-2.98,2.76-3.01c-1.04,1.18-1.01,2.97,0.12,4.1h0l0.71-0.71C9.31,11.14,10.24,9,12,9l0,0c0,0,0,0,0,0 c0.47,0,2.09,0.2,1.96,2.59l1.69,1.53C16.38,13.79,15.9,15,14.92,15z"/><circle cx="13.55" cy="13.45" r=".75"/></g></g></svg>
